svg/meter_gas_outline.svg

<svg xmlns="http://www.w3.org/2000/svg" viewBox="0 0 24 24"><path d="M16 4h-1V2h-2v2h-2V2H9v2H8C5.79 4 4 5.79 4 8v10c0 2.21 1.79 4 4 4h8c2.21 0 4-1.79 4-4V8c0-2.21-1.79-4-4-4m2 14c0 1.1-.9 2-2 2H8c-1.1 0-2-.9-2-2V8c0-1.1.9-2 2-2h8c1.1 0 2 .9 2 2zm-8.5-2.46C9.5 16.9 10.62 18 12 18s2.5-1.1 2.5-2.46c0-1.09-.45-1.41-2.5-3.79-2.07 2.4-2.5 2.71-2.5 3.79M8 8h8v2H8z"/></svg>

<svg xmlns="http://www.w3.org/2000/svg" id="mdi-meter-gas-outline" viewBox="0 0 24 24"><path d="M16 4H15V2H13V4H11V2H9V4H8C5.79 4 4 5.79 4 8V18C4 20.21 5.79 22 8 22H16C18.21 22 20 20.21 20 18V8C20 5.79 18.21 4 16 4M18 18C18 19.1 17.1 20 16 20H8C6.9 20 6 19.1 6 18V8C6 6.9 6.9 6 8 6H16C17.1 6 18 6.9 18 8V18M9.5 15.54C9.5 16.9 10.62 18 12 18S14.5 16.9 14.5 15.54C14.5 14.45 14.05 14.13 12 11.75C9.93 14.15 9.5 14.46 9.5 15.54M8 8H16V10H8V8Z" /></svg>
